build/img/icons/sliderleft.svg

<svg width="81" height="80" viewBox="0 0 81 80" fill="none" xmlns="http://www.w3.org/2000/svg">
<g opacity="0.5">
<path fill-rule="evenodd" clip-rule="evenodd" d="M34.8953 40.0001L42.9669 48.0717L42.2598 48.7788L33.4811 40.0001L42.2598 31.2215L42.9669 31.9286L34.8953 40.0001Z" fill="white"/>
<path fill-rule="evenodd" clip-rule="evenodd" d="M40.3379 1C18.7988 1 1.3379 18.4609 1.3379 40C1.3379 61.5391 18.7988 79 40.3379 79C61.877 79 79.3379 61.5391 79.3379 40C79.3379 18.4609 61.877 1.00001 40.3379 1ZM40.3379 4.13248e-06C18.2465 2.20119e-06 0.337904 17.9086 0.337902 40C0.3379 62.0914 18.2465 80 40.3379 80C62.4293 80 80.3379 62.0914 80.3379 40C80.3379 17.9086 62.4293 6.06377e-06 40.3379 4.13248e-06Z" fill="white"/>
</g>
</svg>

<svg viewBox="0 0 81 80" fill="none" xmlns="http://www.w3.org/2000/svg"><g opacity=".5" fill-rule="evenodd" clip-rule="evenodd" fill="#fff"><path d="M34.895 40l8.072 8.072-.707.707L33.48 40l8.779-8.779.707.708L34.895 40z"/><path d="M40.338 1c-21.54 0-39 17.46-39 39s17.46 39 39 39c21.539 0 39-17.46 39-39s-17.461-39-39-39zm0-1c-22.091 0-40 17.909-40 40s17.909 40 40 40 40-17.909 40-40-17.909-40-40-40z"/></g></svg>
